assets/illustrations/visual-studio-code-logo.svg

<svg width="50" height="50" viewBox="0 0 50 50" fill="none" xmlns="http://www.w3.org/2000/svg">
<rect width="50" height="50" rx="12" fill="white"/>
<path d="M5.38057 18.9486C5.38057 18.9486 4.40632 18.2387 5.57542 17.2909L8.29926 14.8289C8.29926 14.8289 9.07866 14 9.90271 14.7222L35.0384 33.9584V43.1825C35.0384 43.1825 35.0262 44.631 33.1873 44.471L5.38057 18.9486Z" fill="#2489CA"/>
<path d="M11.8591 24.8945L5.38036 30.8484C5.38036 30.8484 4.71462 31.349 5.38036 32.2435L8.38835 35.0091C8.38835 35.0091 9.10281 35.7846 10.1582 34.9024L17.0267 29.6379L11.8591 24.8945Z" fill="#1070B3"/>
<path d="M23.2339 24.9434L35.1157 15.7726L35.0386 6.59769C35.0386 6.59769 34.5311 4.5953 32.8384 5.63753L17.0271 20.1836L23.2339 24.9434Z" fill="#0877B9"/>
<path d="M33.1872 44.4833C33.8773 45.1972 34.7136 44.9634 34.7136 44.9634L43.973 40.3513C45.1583 39.5347 44.9919 38.5212 44.9919 38.5212V10.98C44.9919 9.76958 43.766 9.35105 43.766 9.35105L35.7406 5.44063C33.9869 4.34505 32.8381 5.63758 32.8381 5.63758C32.8381 5.63758 34.3157 4.56253 35.0383 6.59775V43.0143C35.0383 43.2646 34.9855 43.5108 34.88 43.7324C34.6689 44.1632 34.2102 44.5653 33.1101 44.3971L33.1872 44.4833Z" fill="#3C99D4"/>
</svg>

<svg width="50" height="50" fill="none" xmlns="http://www.w3.org/2000/svg"><rect width="50" height="50" rx="12" fill="#fff"/><path d="M5.38 18.949s-.974-.71.195-1.658L8.3 14.829s.78-.829 1.604-.107l25.135 19.236v9.224s-.012 1.449-1.85 1.289L5.38 18.949Z" fill="#2489CA"/><path d="m11.86 24.895-6.48 5.953s-.665.501 0 1.395l3.008 2.766s.715.776 1.77-.107l6.869-5.264-5.168-4.744Z" fill="#1070B3"/><path d="m23.234 24.943 11.882-9.17-.077-9.175s-.508-2.003-2.2-.96L17.026 20.184l6.207 4.76Z" fill="#0877B9"/><path d="M33.187 44.483c.69.714 1.527.48 1.527.48l9.259-4.612c1.185-.816 1.019-1.83 1.019-1.83V10.98c0-1.21-1.226-1.629-1.226-1.629l-8.025-3.91c-1.754-1.096-2.903.197-2.903.197s1.478-1.075 2.2.96v36.416c0 .25-.052.497-.158.718-.211.431-.67.833-1.77.665l.077.086Z" fill="#3C99D4"/></svg>
